X: 114
T: Pojedziemy na ?ów
C: Edward Stefan ?odwigowski
L: 1/8
M: 2/4
N: Derived from pl-wtm--r-1227--024_lodwigowski-edward-stefan--pojedziemy-na-low.krn
Q: "No 95. Moderato"
%%staves {1 2}
V: 1 clef=treble
V: 2 clef=bass
K: D
[V:1] de[fd][ge] | 
[V:2] [F,D,]A,DA, | 
[V:1] [a2f2][fd] z | 
[V:2] [F,D,]A,D z | 
[V:1] [a2f2][fd] z | 
[V:2] [F,D,]A,D z | 
[V:1] [fdA][fdA] [ecAG][ecAG] | 
[V:2] D,F,A,A,, | 
[V:1] [d2A2F2]z2 :|]|:  
[V:2] .D,2z2 :|]|:  
[V:1] [fdA][fdA][ecA][ecA] | 
[V:2] .D,.A,.A,,.A, | 
[V:1] [fdA][fdA][g2e2A2] | 
[V:2] .D,.A,!accent!C,A,, | 
[V:1] [fdA][fdA][ecA][ecA] | 
[V:2] .D,.A,.A,,.A, | 
[V:1] [fdA][fdA][g2e2A2] | 
[V:2] .D,.A,!accent!C,A,, | 
[V:1] [fdA][fdA][ecAG][ecAG] | 
[V:2] .D,.F,.A,.A,, | 
[V:1] [d2A2F2]z2 :|]  
[V:2] .D,2z2 :|]  

